src/assets/icons/storage.svg

<svg width="22" height="22" viewBox="0 0 22 22" fill="none" xmlns="http://www.w3.org/2000/svg">
<path fill-rule="evenodd" clip-rule="evenodd" d="M2 2H20V2.44611L19.6287 2.84406C19.2831 3.21438 19.0909 3.70203 19.0909 4.20854V4.39456C19.0909 4.90108 19.2831 5.38872 19.6287 5.75905L20 6.157V7.79383L2 7.79383V6.157L2.37134 5.75905C2.71691 5.38872 2.90909 4.90108 2.90909 4.39456V4.20854C2.90909 3.70203 2.71691 3.21438 2.37134 2.84406L2 2.44611V2ZM1 2C1 1.44772 1.44772 1 2 1H20C20.5523 1 21 1.44772 21 2V2.44611C21 2.69936 20.9039 2.94319 20.7311 3.12835L20.3598 3.5263C20.187 3.71146 20.0909 3.95528 20.0909 4.20854V4.39456C20.0909 4.64782 20.187 4.89164 20.3598 5.07681L20.7311 5.47476C20.9039 5.65992 21 5.90374 21 6.157V7.79383C21 8.34611 20.5523 8.79383 20 8.79383H19.1729C19.1788 8.83766 19.1818 8.88239 19.1818 8.92782V9.52576C19.1818 10.078 18.7341 10.5258 18.1818 10.5258H16.5455C15.9932 10.5258 15.5455 10.078 15.5455 9.52576V8.92782C15.5455 8.88238 15.5485 8.83766 15.5544 8.79383H14.6275C14.6333 8.83766 14.6364 8.88239 14.6364 8.92782V9.52576C14.6364 10.078 14.1886 10.5258 13.6364 10.5258H12C11.7988 10.5258 11.6114 10.4663 11.4545 10.364C11.2977 10.4663 11.1103 10.5258 10.9091 10.5258H9.27273C9.07149 10.5258 8.88414 10.4663 8.72727 10.364C8.5704 10.4663 8.38306 10.5258 8.18182 10.5258H6.54546C6.34422 10.5258 6.15687 10.4663 6 10.364C5.84313 10.4663 5.65578 10.5258 5.45454 10.5258H3.81818C3.26589 10.5258 2.81818 10.078 2.81818 9.52576V8.92782C2.81818 8.88238 2.82121 8.83766 2.82708 8.79383H2C1.44772 8.79383 1 8.34611 1 7.79383V6.157C1 5.90374 1.09609 5.65992 1.26887 5.47476L1.64022 5.07681C1.813 4.89164 1.90909 4.64782 1.90909 4.39456V4.20854C1.90909 3.95528 1.813 3.71146 1.64022 3.5263L1.26887 3.12835C1.09609 2.94319 1 2.69936 1 2.44611V2ZM3.81818 8.92782H5.45454V9.52576L3.81818 9.52576V8.92782ZM10.9091 8.92782H9.27273V9.52576L10.9091 9.52576V8.92782ZM12 8.92782H13.6364V9.52576L12 9.52576V8.92782ZM18.1818 8.92782H16.5455V9.52576L18.1818 9.52576V8.92782ZM6.54546 8.92782H8.18182V9.52576L6.54546 9.52576V8.92782ZM7.27273 3.73198L5.63637 3.73198V6.06189L7.27273 6.06189V3.73198ZM5.63637 2.73198C5.08408 2.73198 4.63637 3.1797 4.63637 3.73198V6.06189C4.63637 6.61417 5.08408 7.06189 5.63637 7.06189H7.27273C7.82502 7.06189 8.27273 6.61417 8.27273 6.06189V3.73198C8.27273 3.1797 7.82502 2.73198 7.27273 2.73198H5.63637ZM10.1818 3.73198L11.8182 3.73198V6.06189L10.1818 6.06189V3.73198ZM9.18182 3.73198C9.18182 3.1797 9.62953 2.73198 10.1818 2.73198H11.8182C12.3705 2.73198 12.8182 3.1797 12.8182 3.73198V6.06189C12.8182 6.61417 12.3705 7.06189 11.8182 7.06189H10.1818C9.62953 7.06189 9.18182 6.61417 9.18182 6.06189V3.73198ZM16.3636 3.73198L14.7273 3.73198V6.06189L16.3636 6.06189V3.73198ZM14.7273 2.73198C14.175 2.73198 13.7273 3.1797 13.7273 3.73198V6.06189C13.7273 6.61417 14.175 7.06189 14.7273 7.06189H16.3636C16.9159 7.06189 17.3636 6.61417 17.3636 6.06189V3.73198C17.3636 3.1797 16.9159 2.73198 16.3636 2.73198H14.7273ZM2 12.4742H20V12.9203L19.6287 13.3183C19.2831 13.6886 19.0909 14.1763 19.0909 14.6828V14.8688C19.0909 15.3753 19.2831 15.8629 19.6287 16.2333L20 16.6312V18.2681H2V16.6312L2.37134 16.2333C2.71691 15.8629 2.90909 15.3753 2.90909 14.8688V14.6828C2.90909 14.1763 2.71691 13.6886 2.37134 13.3183L2 12.9203V12.4742ZM1 12.4742C1 11.9219 1.44772 11.4742 2 11.4742H20C20.5523 11.4742 21 11.9219 21 12.4742V12.9203C21 13.1736 20.9039 13.4174 20.7311 13.6026L20.3598 14.0005C20.187 14.1857 20.0909 14.4295 20.0909 14.6828V14.8688C20.0909 15.122 20.187 15.3659 20.3598 15.551L20.7311 15.949C20.9039 16.1341 21 16.378 21 16.6312V18.2681C21 18.8203 20.5523 19.2681 20 19.2681H19.1729C19.1788 19.3119 19.1818 19.3566 19.1818 19.4021V20C19.1818 20.5523 18.7341 21 18.1818 21H16.5455C15.9932 21 15.5455 20.5523 15.5455 20V19.4021C15.5455 19.3566 15.5485 19.3119 15.5544 19.2681H14.6275C14.6333 19.3119 14.6364 19.3566 14.6364 19.4021V20C14.6364 20.5523 14.1886 21 13.6364 21H12C11.7988 21 11.6114 20.9406 11.4545 20.8383C11.2977 20.9406 11.1103 21 10.9091 21H9.27273C9.07149 21 8.88414 20.9406 8.72727 20.8383C8.5704 20.9406 8.38306 21 8.18182 21H6.54546C6.34422 21 6.15687 20.9406 6 20.8383C5.84313 20.9406 5.65578 21 5.45454 21H3.81818C3.26589 21 2.81818 20.5523 2.81818 20V19.4021C2.81818 19.3566 2.82121 19.3119 2.82708 19.2681H2C1.44772 19.2681 1 18.8203 1 18.2681V16.6312C1 16.378 1.09609 16.1341 1.26887 15.949L1.64022 15.551C1.813 15.3659 1.90909 15.122 1.90909 14.8688V14.6828C1.90909 14.4295 1.813 14.1857 1.64022 14.0005L1.26887 13.6026C1.09609 13.4174 1 13.1736 1 12.9203V12.4742ZM5.45454 19.4021H3.81818V20H5.45454V19.4021ZM9.27273 19.4021H10.9091V20H9.27273V19.4021ZM13.6364 19.4021H12V20H13.6364V19.4021ZM16.5455 19.4021H18.1818V20H16.5455V19.4021ZM8.18182 19.4021H6.54546V20H8.18182V19.4021ZM5.63637 14.2062H7.27273V16.5361H5.63637V14.2062ZM4.63637 14.2062C4.63637 13.6539 5.08408 13.2062 5.63637 13.2062H7.27273C7.82502 13.2062 8.27273 13.6539 8.27273 14.2062V16.5361C8.27273 17.0884 7.82502 17.5361 7.27273 17.5361H5.63637C5.08408 17.5361 4.63637 17.0884 4.63637 16.5361V14.2062ZM11.8182 14.2062H10.1818V16.5361H11.8182V14.2062ZM10.1818 13.2062C9.62953 13.2062 9.18182 13.6539 9.18182 14.2062V16.5361C9.18182 17.0884 9.62953 17.5361 10.1818 17.5361H11.8182C12.3705 17.5361 12.8182 17.0884 12.8182 16.5361V14.2062C12.8182 13.6539 12.3705 13.2062 11.8182 13.2062H10.1818ZM14.7273 14.2062H16.3636V16.5361H14.7273V14.2062ZM13.7273 14.2062C13.7273 13.6539 14.175 13.2062 14.7273 13.2062H16.3636C16.9159 13.2062 17.3636 13.6539 17.3636 14.2062V16.5361C17.3636 17.0884 16.9159 17.5361 16.3636 17.5361H14.7273C14.175 17.5361 13.7273 17.0884 13.7273 16.5361V14.2062Z" fill="white"/>
</svg>

<svg width="22" height="22" fill="none" xmlns="http://www.w3.org/2000/svg"><path fill-rule="evenodd" clip-rule="evenodd" d="M2 2h18v.446l-.371.398a2 2 0 0 0-.538 1.365v.186a2 2 0 0 0 .538 1.364l.371.398v1.637H2V6.157l.371-.398a2 2 0 0 0 .538-1.364v-.186a2 2 0 0 0-.538-1.365L2 2.446zM1 2a1 1 0 0 1 1-1h18a1 1 0 0 1 1 1v.446a1 1 0 0 1-.269.682l-.371.398a1 1 0 0 0-.27.683v.186a1 1 0 0 0 .27.682l.371.398a1 1 0 0 1 .269.682v1.637a1 1 0 0 1-1 1h-.827q.009.066.009.134v.598a1 1 0 0 1-1 1h-1.636a1 1 0 0 1-1-1v-.598q0-.069.008-.134h-.927q.01.066.01.134v.598a1 1 0 0 1-1 1H12a1 1 0 0 1-.546-.162 1 1 0 0 1-.545.162H9.273a1 1 0 0 1-.546-.162 1 1 0 0 1-.545.162H6.545A1 1 0 0 1 6 10.364a1 1 0 0 1-.545.162H3.818a1 1 0 0 1-1-1v-.598q0-.069.01-.134H2a1 1 0 0 1-1-1V6.157a1 1 0 0 1 .269-.682l.371-.398a1 1 0 0 0 .27-.682v-.186a1 1 0 0 0-.27-.683l-.371-.398A1 1 0 0 1 1 2.446zm2.818 6.928h1.637v.598H3.818zm7.091 0H9.273v.598h1.636zm1.091 0h1.636v.598H12zm6.182 0h-1.636v.598h1.636zm-11.637 0h1.637v.598H6.545zm.728-5.196H5.636v2.33h1.637zm-1.637-1a1 1 0 0 0-1 1v2.33a1 1 0 0 0 1 1h1.637a1 1 0 0 0 1-1v-2.33a1 1 0 0 0-1-1zm4.546 1h1.636v2.33h-1.636zm-1 0a1 1 0 0 1 1-1h1.636a1 1 0 0 1 1 1v2.33a1 1 0 0 1-1 1h-1.636a1 1 0 0 1-1-1zm7.182 0h-1.637v2.33h1.637zm-1.637-1a1 1 0 0 0-1 1v2.33a1 1 0 0 0 1 1h1.637a1 1 0 0 0 1-1v-2.33a1 1 0 0 0-1-1zM2 12.474h18v.446l-.371.398a2 2 0 0 0-.538 1.365v.186a2 2 0 0 0 .538 1.364l.371.398v1.637H2v-1.637l.371-.398a2 2 0 0 0 .538-1.364v-.186a2 2 0 0 0-.538-1.365L2 12.92zm-1 0a1 1 0 0 1 1-1h18a1 1 0 0 1 1 1v.446a1 1 0 0 1-.269.683L20.36 14a1 1 0 0 0-.27.682v.186a1 1 0 0 0 .27.682l.371.398a1 1 0 0 1 .269.682v1.637a1 1 0 0 1-1 1h-.827q.009.066.009.134V20a1 1 0 0 1-1 1h-1.636a1 1 0 0 1-1-1v-.598q0-.068.008-.134h-.927q.01.066.01.134V20a1 1 0 0 1-1 1H12a1 1 0 0 1-.546-.162 1 1 0 0 1-.545.162H9.273a1 1 0 0 1-.546-.162 1 1 0 0 1-.545.162H6.545A1 1 0 0 1 6 20.838a1 1 0 0 1-.545.162H3.818a1 1 0 0 1-1-1v-.598q0-.068.01-.134H2a1 1 0 0 1-1-1v-1.637a1 1 0 0 1 .269-.682l.371-.398a1 1 0 0 0 .27-.682v-.186A1 1 0 0 0 1.64 14l-.371-.398A1 1 0 0 1 1 12.92zm4.455 6.928H3.818V20h1.637zm3.818 0h1.636V20H9.273zm4.363 0H12V20h1.636zm2.91 0h1.636V20h-1.636zm-8.364 0H6.545V20h1.637zm-2.546-5.196h1.637v2.33H5.636zm-1 0a1 1 0 0 1 1-1h1.637a1 1 0 0 1 1 1v2.33a1 1 0 0 1-1 1H5.636a1 1 0 0 1-1-1zm7.182 0h-1.636v2.33h1.636zm-1.636-1a1 1 0 0 0-1 1v2.33a1 1 0 0 0 1 1h1.636a1 1 0 0 0 1-1v-2.33a1 1 0 0 0-1-1zm4.545 1h1.637v2.33h-1.637zm-1 0a1 1 0 0 1 1-1h1.637a1 1 0 0 1 1 1v2.33a1 1 0 0 1-1 1h-1.637a1 1 0 0 1-1-1z" fill="#fff"/></svg>
